static/img/docs_logo_white.svg

<svg width="424" height="32" viewBox="0 0 424 32" fill="none" xmlns="http://www.w3.org/2000/svg">
<path d="M281.72 22.042V20.71H273.08V22.042H281.72ZM290.443 19H291.883V5.68H290.443V11.224H290.371C289.777 10.09 288.805 9.496 287.509 9.496C285.241 9.496 283.873 11.314 283.873 14.356C283.873 17.398 285.241 19.216 287.509 19.216C288.805 19.216 289.777 18.622 290.371 17.488H290.443V19ZM288.067 17.938C286.393 17.938 285.421 16.822 285.421 15.148V13.564C285.421 11.89 286.393 10.774 288.067 10.774C289.345 10.774 290.443 11.44 290.443 12.682V16.03C290.443 17.272 289.345 17.938 288.067 17.938ZM298.986 19.216C301.596 19.216 303.198 17.308 303.198 14.356C303.198 11.404 301.596 9.496 298.986 9.496C296.376 9.496 294.774 11.404 294.774 14.356C294.774 17.308 296.376 19.216 298.986 19.216ZM298.986 17.974C297.384 17.974 296.304 17.02 296.304 15.022V13.69C296.304 11.692 297.384 10.738 298.986 10.738C300.588 10.738 301.668 11.692 301.668 13.69V15.022C301.668 17.02 300.588 17.974 298.986 17.974ZM310.103 19.216C311.957 19.216 313.127 18.298 313.667 17.056L312.641 16.354C312.173 17.362 311.363 17.974 310.121 17.974C308.375 17.974 307.439 16.786 307.439 15.148V13.564C307.439 11.926 308.393 10.738 310.085 10.738C311.237 10.738 312.029 11.296 312.371 12.25L313.523 11.638C313.001 10.378 311.885 9.496 310.085 9.496C307.457 9.496 305.891 11.404 305.891 14.356C305.891 17.29 307.439 19.216 310.103 19.216ZM322.768 19H324.208V9.712H322.768V16.156C322.768 17.38 321.616 17.938 320.464 17.938C319.042 17.938 318.268 17.11 318.268 15.418V9.712H316.828V15.67C316.828 17.92 318.106 19.216 320.05 19.216C321.58 19.216 322.3 18.406 322.696 17.488H322.768V19ZM328.269 19V12.178C328.269 11.188 328.809 10.684 329.583 10.684C330.429 10.684 330.699 11.206 330.699 12.79V19H332.031V12.178C332.031 11.188 332.571 10.684 333.327 10.684C334.191 10.684 334.461 11.206 334.461 12.79V19H335.793V12.556C335.793 10.594 335.397 9.496 333.885 9.496C332.787 9.496 332.211 10.108 331.869 10.954H331.815C331.707 10.09 331.185 9.496 330.123 9.496C329.097 9.496 328.629 10.072 328.341 10.792H328.269V9.712H326.937V19H328.269ZM342.32 19.216C344.156 19.216 345.488 18.316 346.046 17.074L344.984 16.354C344.498 17.362 343.562 17.974 342.32 17.974C340.574 17.974 339.476 16.786 339.476 15.148V14.716H346.352V14.032C346.352 11.404 344.732 9.496 342.23 9.496C339.71 9.496 337.964 11.404 337.964 14.374C337.964 17.308 339.656 19.216 342.32 19.216ZM342.23 10.684C343.76 10.684 344.804 11.8 344.804 13.438V13.636H339.476V13.51C339.476 11.89 340.646 10.684 342.23 10.684ZM350.755 19V12.556C350.755 11.332 351.907 10.774 353.059 10.774C354.481 10.774 355.255 11.602 355.255 13.294V19H356.695V13.042C356.695 10.792 355.417 9.496 353.473 9.496C351.943 9.496 351.223 10.306 350.827 11.224H350.755V9.712H349.315V19H350.755ZM367.812 19V17.776H363.582V10.936H367.812V9.712H363.582V6.436H362.196V8.866C362.196 9.496 361.962 9.712 361.35 9.712H359.046V10.936H362.142V16.876C362.142 18.118 362.79 19 364.194 19H367.812ZM379.037 19V17.74H377.741V12.628C377.741 10.666 376.355 9.496 374.177 9.496C372.287 9.496 371.099 10.396 370.631 11.368L371.603 12.088C372.089 11.242 372.845 10.72 374.087 10.72C375.491 10.72 376.301 11.422 376.301 12.772V13.69H374.321C371.531 13.69 370.325 14.68 370.325 16.39C370.325 18.136 371.567 19.216 373.511 19.216C375.023 19.216 375.905 18.55 376.301 17.488H376.391C376.499 18.352 376.931 19 378.047 19H379.037ZM373.763 18.01C372.575 18.01 371.837 17.506 371.837 16.552V16.174C371.837 15.274 372.611 14.77 374.321 14.77H376.301V16.3C376.301 17.254 375.239 18.01 373.763 18.01ZM389.398 19V17.776H385.168V10.936H389.398V9.712H385.168V6.436H383.782V8.866C383.782 9.496 383.548 9.712 382.936 9.712H380.632V10.936H383.728V16.876C383.728 18.118 384.376 19 385.78 19H389.398ZM396.699 7.66C397.527 7.66 397.833 7.264 397.833 6.742V6.454C397.833 5.932 397.527 5.536 396.699 5.536C395.871 5.536 395.565 5.932 395.565 6.454V6.742C395.565 7.264 395.871 7.66 396.699 7.66ZM392.631 19H400.551V17.776H397.419V9.712H392.631V10.936H395.979V17.776H392.631V19ZM406.916 19.216C409.526 19.216 411.128 17.308 411.128 14.356C411.128 11.404 409.526 9.496 406.916 9.496C404.306 9.496 402.704 11.404 402.704 14.356C402.704 17.308 404.306 19.216 406.916 19.216ZM406.916 17.974C405.314 17.974 404.234 17.02 404.234 15.022V13.69C404.234 11.692 405.314 10.738 406.916 10.738C408.518 10.738 409.598 11.692 409.598 13.69V15.022C409.598 17.02 408.518 17.974 406.916 17.974ZM415.513 19V12.556C415.513 11.332 416.665 10.774 417.817 10.774C419.239 10.774 420.013 11.602 420.013 13.294V19H421.453V13.042C421.453 10.792 420.175 9.496 418.231 9.496C416.701 9.496 415.981 10.306 415.585 11.224H415.513V9.712H414.073V19H415.513Z" fill="#FDFDFD"/>
<path d="M42.8774 10.0025C42.9099 10.0025 42.9411 10.0157 42.9641 10.0392C42.9871 10.0627 43 10.0945 43 10.1278V15.3236C43 17.7862 41.4904 19 39.5 19C37.5096 19 36 17.7862 36 15.3236V10.1253C36 10.092 36.0129 10.0602 36.0359 10.0367C36.0589 10.0132 36.0901 10 36.1226 10H37.3048C37.3374 10 37.3686 10.0132 37.3916 10.0367C37.4146 10.0602 37.4275 10.092 37.4275 10.1253V15.2322C37.4275 16.9507 38.3055 17.6322 39.5061 17.6322C40.7067 17.6322 41.575 16.9507 41.575 15.2322V10.1253C41.575 10.092 41.5879 10.0602 41.6109 10.0367C41.6339 10.0132 41.6651 10 41.6976 10L42.8774 10.0025Z" fill="#FDFDFD"/>
<path d="M65 14.5C64.9877 17.06 63.0407 19 60.5 19C57.9593 19 56 17.06 56 14.5C56 11.94 57.9593 10 60.5 10C63.0407 10 64.9877 11.94 65 14.5ZM57.4135 14.5C57.4135 16.3143 58.7398 17.6565 60.5 17.6565C62.2602 17.6565 63.5729 16.3143 63.5729 14.5C63.5729 12.6857 62.2466 11.3435 60.5 11.3435C58.7533 11.3435 57.4135 12.6857 57.4135 14.5Z" fill="#FDFDFD"/>
<path d="M78.4478 18.9949H77.128C77.1071 18.9943 77.0867 18.9889 77.0684 18.9792C77.0502 18.9695 77.0345 18.9557 77.0228 18.939C77.0111 18.9224 77.0036 18.9032 77.001 18.8832C76.9984 18.8632 77.0008 18.8429 77.0079 18.8239L80.4936 10.1199C80.5077 10.0846 80.5325 10.0543 80.5648 10.0329C80.5971 10.0115 80.6353 10 80.6744 10H82.3229C82.3621 9.99985 82.4004 10.0113 82.4327 10.0327C82.465 10.0541 82.4898 10.0845 82.5037 10.1199L85.9921 18.829C85.9992 18.848 86.0016 18.8683 85.999 18.8883C85.9964 18.9083 85.9889 18.9275 85.9772 18.9442C85.9655 18.9608 85.9498 18.9746 85.9316 18.9843C85.9133 18.994 85.8929 18.9994 85.872 19H84.5495C84.5232 18.9997 84.4975 18.9917 84.4759 18.9772C84.4542 18.9626 84.4376 18.9421 84.4281 18.9183L81.6168 11.7518C81.6065 11.7291 81.5896 11.7099 81.5681 11.6964C81.5467 11.6829 81.5216 11.6757 81.496 11.6757C81.4704 11.6757 81.4454 11.6829 81.424 11.6964C81.4025 11.7099 81.3856 11.7291 81.3753 11.7518L78.564 18.9183C78.5541 18.9404 78.5379 18.9593 78.5173 18.9728C78.4968 18.9864 78.4727 18.994 78.4478 18.9949V18.9949Z" fill="#FDFDFD"/>
<path d="M26.4487 18.9949H25.1281C25.1072 18.9943 25.0868 18.9889 25.0685 18.9792C25.0502 18.9695 25.0345 18.9557 25.0228 18.939C25.0111 18.9224 25.0036 18.9032 25.001 18.8832C24.9984 18.8632 25.0008 18.8429 25.0079 18.8239L28.4957 10.1199C28.5096 10.0845 28.5344 10.0541 28.5667 10.0327C28.5991 10.0113 28.6374 9.99985 28.6766 10H30.326C30.3652 10 30.4034 10.0115 30.4357 10.0329C30.468 10.0543 30.4929 10.0846 30.507 10.1199L33.9921 18.829C33.9992 18.848 34.0016 18.8683 33.999 18.8883C33.9964 18.9083 33.9889 18.9275 33.9772 18.9442C33.9655 18.9608 33.9498 18.9746 33.9315 18.9843C33.9132 18.994 33.8928 18.9994 33.8719 19H32.5513C32.5249 18.9997 32.4993 18.9917 32.4776 18.9772C32.456 18.9626 32.4393 18.9421 32.4298 18.9183L29.6182 11.7467C29.6079 11.724 29.5909 11.7048 29.5695 11.6913C29.548 11.6778 29.523 11.6706 29.4974 11.6706C29.4717 11.6706 29.4467 11.6778 29.4252 11.6913C29.4038 11.7048 29.3869 11.724 29.3765 11.7467L26.5636 18.9132C26.5545 18.9361 26.5389 18.9559 26.5185 18.9703C26.4982 18.9848 26.4739 18.9933 26.4487 18.9949V18.9949Z" fill="#FDFDFD"/>
<path d="M74.9762 18.7945L72.4708 15.5657C73.8848 15.2951 74.7119 14.3315 74.7119 12.8537C74.7119 11.1563 73.6167 10 71.6766 10H68.1859C68.1366 10 68.0893 10.0198 68.0545 10.0549C68.0196 10.0901 68 10.1378 68 10.1876V10.1876C68 10.5061 68.1254 10.8116 68.3486 11.0368C68.5718 11.262 68.8745 11.3885 69.1901 11.3885H71.5286C72.6997 11.3885 73.26 11.9922 73.26 12.8664C73.26 13.7406 72.7124 14.3571 71.5286 14.3571H68.1859C68.1366 14.3571 68.0893 14.3768 68.0545 14.412C68.0196 14.4472 68 14.4949 68 14.5447V18.8724C68 18.9062 68.0133 18.9387 68.037 18.9626C68.0608 18.9866 68.0929 19 68.1265 19H69.3178C69.3514 19 69.3836 18.9866 69.4073 18.9626C69.431 18.9387 69.4443 18.9062 69.4443 18.8724V15.641H70.8203L72.9957 18.5061C73.1111 18.6585 73.2599 18.782 73.4303 18.867C73.6007 18.952 73.7883 18.9962 73.9784 18.9962H74.8839C74.9062 18.9943 74.9277 18.9865 74.946 18.9736C74.9643 18.9606 74.979 18.943 74.9883 18.9225C74.9977 18.902 75.0016 18.8794 74.9994 18.8569C74.9973 18.8344 74.9893 18.8129 74.9762 18.7945Z" fill="#FDFDFD"/>
<path d="M53.9762 18.7945L51.4708 15.5657C52.8848 15.2951 53.7132 14.3315 53.7132 12.8537C53.7132 11.1563 52.6179 10 50.6778 10H47.1859C47.1366 10 47.0893 10.0198 47.0545 10.0549C47.0196 10.0901 47 10.1378 47 10.1876V10.1876C47.0003 10.506 47.1258 10.8113 47.3489 11.0364C47.5721 11.2616 47.8746 11.3882 48.1901 11.3885H50.5286C51.701 11.3885 52.2613 11.9922 52.2613 12.8664C52.2613 13.7406 51.7136 14.3571 50.5286 14.3571H47.1859C47.1366 14.3571 47.0893 14.3768 47.0545 14.412C47.0196 14.4472 47 14.4949 47 14.5447V18.8724C47 18.9062 47.0133 18.9387 47.037 18.9626C47.0608 18.9866 47.0929 19 47.1265 19H48.3191C48.3527 19 48.3848 18.9866 48.4085 18.9626C48.4323 18.9387 48.4456 18.9062 48.4456 18.8724V15.641H49.8203L51.9957 18.5061C52.1113 18.6583 52.2601 18.7816 52.4305 18.8666C52.6009 18.9516 52.7883 18.9959 52.9784 18.9962H53.8839C53.9062 18.9943 53.9277 18.9865 53.946 18.9736C53.9643 18.9606 53.979 18.943 53.9883 18.9225C53.9977 18.902 54.0016 18.8794 53.9994 18.8569C53.9973 18.8344 53.9893 18.8129 53.9762 18.7945Z" fill="#FDFDFD"/>
<path d="M10.5 6.45139C10.8922 6.45013 11.277 6.55873 11.6106 6.76487C11.9443 6.97101 12.2136 7.26646 12.388 7.61778L18.3253 19.4928C18.4864 19.8147 18.5624 20.1724 18.5463 20.5319C18.5302 20.8915 18.4225 21.241 18.2333 21.5472C18.0441 21.8534 17.7798 22.1061 17.4655 22.2814C17.1511 22.4567 16.7972 22.5486 16.4372 22.5486H4.56276C4.20284 22.5486 3.8489 22.4567 3.53455 22.2814C3.2202 22.1061 2.95588 21.8534 2.76669 21.5472C2.57751 21.241 2.46975 20.8915 2.45366 20.5319C2.43756 20.1724 2.51365 19.8147 2.67471 19.4928L8.61196 7.61778C8.78638 7.26646 9.05569 6.97101 9.38937 6.76487C9.72305 6.55873 10.1078 6.45013 10.5 6.45139ZM10.5 5C9.83849 4.99992 9.19003 5.18405 8.62726 5.53175C8.06449 5.87944 7.60964 6.37698 7.31368 6.96861L1.37643 18.8436C1.10471 19.3868 0.976363 19.9904 1.00358 20.5972C1.0308 21.2039 1.21268 21.7936 1.53194 22.3103C1.8512 22.8269 2.29725 23.2534 2.82771 23.5491C3.35817 23.8449 3.95543 24.0001 4.56276 24H16.4372C17.0446 24.0001 17.6418 23.8449 18.1723 23.5491C18.7028 23.2534 19.1488 22.8269 19.4681 22.3103C19.7873 21.7936 19.9692 21.2039 19.9964 20.5972C20.0236 19.9904 19.8953 19.3868 19.6236 18.8436L13.6863 6.96861C13.3904 6.37698 12.9355 5.87944 12.3727 5.53175C11.81 5.18405 11.1615 4.99992 10.5 5V5Z" fill="#70D44B"/>
</svg>

<svg width="424" height="32" fill="none" xmlns="http://www.w3.org/2000/svg"><path d="M281.72 22.042V20.71h-8.64v1.332h8.64ZM290.443 19h1.44V5.68h-1.44v5.544h-.072c-.594-1.134-1.566-1.728-2.862-1.728-2.268 0-3.636 1.818-3.636 4.86 0 3.042 1.368 4.86 3.636 4.86 1.296 0 2.268-.594 2.862-1.728h.072V19Zm-2.376-1.062c-1.674 0-2.646-1.116-2.646-2.79v-1.584c0-1.674.972-2.79 2.646-2.79 1.278 0 2.376.666 2.376 1.908v3.348c0 1.242-1.098 1.908-2.376 1.908Zm10.919 1.278c2.61 0 4.212-1.908 4.212-4.86 0-2.952-1.602-4.86-4.212-4.86-2.61 0-4.212 1.908-4.212 4.86 0 2.952 1.602 4.86 4.212 4.86Zm0-1.242c-1.602 0-2.682-.954-2.682-2.952V13.69c0-1.998 1.08-2.952 2.682-2.952 1.602 0 2.682.954 2.682 2.952v1.332c0 1.998-1.08 2.952-2.682 2.952Zm11.117 1.242c1.854 0 3.024-.918 3.564-2.16l-1.026-.702c-.468 1.008-1.278 1.62-2.52 1.62-1.746 0-2.682-1.188-2.682-2.826v-1.584c0-1.638.954-2.826 2.646-2.826 1.152 0 1.944.558 2.286 1.512l1.152-.612c-.522-1.26-1.638-2.142-3.438-2.142-2.628 0-4.194 1.908-4.194 4.86 0 2.934 1.548 4.86 4.212 4.86ZM322.768 19h1.44V9.712h-1.44v6.444c0 1.224-1.152 1.782-2.304 1.782-1.422 0-2.196-.828-2.196-2.52V9.712h-1.44v5.958c0 2.25 1.278 3.546 3.222 3.546 1.53 0 2.25-.81 2.646-1.728h.072V19Zm5.501 0v-6.822c0-.99.54-1.494 1.314-1.494.846 0 1.116.522 1.116 2.106V19h1.332v-6.822c0-.99.54-1.494 1.296-1.494.864 0 1.134.522 1.134 2.106V19h1.332v-6.444c0-1.962-.396-3.06-1.908-3.06-1.098 0-1.674.612-2.016 1.458h-.054c-.108-.864-.63-1.458-1.692-1.458-1.026 0-1.494.576-1.782 1.296h-.072v-1.08h-1.332V19h1.332Zm14.051.216c1.836 0 3.168-.9 3.726-2.142l-1.062-.72c-.486 1.008-1.422 1.62-2.664 1.62-1.746 0-2.844-1.188-2.844-2.826v-.432h6.876v-.684c0-2.628-1.62-4.536-4.122-4.536-2.52 0-4.266 1.908-4.266 4.878 0 2.934 1.692 4.842 4.356 4.842Zm-.09-8.532c1.53 0 2.574 1.116 2.574 2.754v.198h-5.328v-.126c0-1.62 1.17-2.826 2.754-2.826ZM350.755 19v-6.444c0-1.224 1.152-1.782 2.304-1.782 1.422 0 2.196.828 2.196 2.52V19h1.44v-5.958c0-2.25-1.278-3.546-3.222-3.546-1.53 0-2.25.81-2.646 1.728h-.072V9.712h-1.44V19h1.44Zm17.057 0v-1.224h-4.23v-6.84h4.23V9.712h-4.23V6.436h-1.386v2.43c0 .63-.234.846-.846.846h-2.304v1.224h3.096v5.94c0 1.242.648 2.124 2.052 2.124h3.618Zm11.225 0v-1.26h-1.296v-5.112c0-1.962-1.386-3.132-3.564-3.132-1.89 0-3.078.9-3.546 1.872l.972.72c.486-.846 1.242-1.368 2.484-1.368 1.404 0 2.214.702 2.214 2.052v.918h-1.98c-2.79 0-3.996.99-3.996 2.7 0 1.746 1.242 2.826 3.186 2.826 1.512 0 2.394-.666 2.79-1.728h.09c.108.864.54 1.512 1.656 1.512h.99Zm-5.274-.99c-1.188 0-1.926-.504-1.926-1.458v-.378c0-.9.774-1.404 2.484-1.404h1.98v1.53c0 .954-1.062 1.71-2.538 1.71Zm15.635.99v-1.224h-4.23v-6.84h4.23V9.712h-4.23V6.436h-1.386v2.43c0 .63-.234.846-.846.846h-2.304v1.224h3.096v5.94c0 1.242.648 2.124 2.052 2.124h3.618Zm7.301-11.34c.828 0 1.134-.396 1.134-.918v-.288c0-.522-.306-.918-1.134-.918-.828 0-1.134.396-1.134.918v.288c0 .522.306.918 1.134.918ZM392.631 19h7.92v-1.224h-3.132V9.712h-4.788v1.224h3.348v6.84h-3.348V19Zm14.285.216c2.61 0 4.212-1.908 4.212-4.86 0-2.952-1.602-4.86-4.212-4.86-2.61 0-4.212 1.908-4.212 4.86 0 2.952 1.602 4.86 4.212 4.86Zm0-1.242c-1.602 0-2.682-.954-2.682-2.952V13.69c0-1.998 1.08-2.952 2.682-2.952 1.602 0 2.682.954 2.682 2.952v1.332c0 1.998-1.08 2.952-2.682 2.952ZM415.513 19v-6.444c0-1.224 1.152-1.782 2.304-1.782 1.422 0 2.196.828 2.196 2.52V19h1.44v-5.958c0-2.25-1.278-3.546-3.222-3.546-1.53 0-2.25.81-2.646 1.728h-.072V9.712h-1.44V19h1.44ZM42.877 10.002c.033 0 .064.014.087.037a.127.127 0 0 1 .036.089v5.196C43 17.786 41.49 19 39.5 19S36 17.786 36 15.324v-5.199c0-.033.013-.065.036-.088a.121.121 0 0 1 .087-.037h1.182c.032 0 .064.013.087.037a.127.127 0 0 1 .035.088v5.107c0 1.719.879 2.4 2.08 2.4 1.2 0 2.068-.681 2.068-2.4v-5.107c0-.033.013-.065.036-.088a.121.121 0 0 1 .087-.037l1.18.002ZM65 14.5c-.012 2.56-1.96 4.5-4.5 4.5S56 17.06 56 14.5s1.96-4.5 4.5-4.5 4.488 1.94 4.5 4.5Zm-7.587 0c0 1.814 1.327 3.157 3.087 3.157 1.76 0 3.073-1.343 3.073-3.157s-1.326-3.156-3.073-3.156c-1.747 0-3.087 1.342-3.087 3.156ZM78.448 18.995h-1.32a.136.136 0 0 1-.105-.056.125.125 0 0 1-.015-.115l3.486-8.704a.188.188 0 0 1 .07-.087.199.199 0 0 1 .11-.033h1.649c.04 0 .077.011.11.033a.187.187 0 0 1 .07.087l3.49 8.709a.124.124 0 0 1-.016.115.132.132 0 0 1-.105.056h-1.323a.135.135 0 0 1-.073-.023.128.128 0 0 1-.048-.059l-2.811-7.166a.128.128 0 0 0-.049-.056.135.135 0 0 0-.144 0 .128.128 0 0 0-.049.056l-2.811 7.166a.134.134 0 0 1-.116.077ZM26.449 18.995h-1.32a.136.136 0 0 1-.106-.056.125.125 0 0 1-.015-.115l3.488-8.704a.187.187 0 0 1 .07-.087.198.198 0 0 1 .11-.033h1.65c.04 0 .077.011.11.033a.189.189 0 0 1 .071.087l3.485 8.709a.124.124 0 0 1-.015.115.131.131 0 0 1-.105.056h-1.32a.135.135 0 0 1-.074-.023.13.13 0 0 1-.048-.059l-2.812-7.171a.129.129 0 0 0-.048-.056.136.136 0 0 0-.145 0 .13.13 0 0 0-.049.056l-2.812 7.166a.127.127 0 0 1-.046.057.135.135 0 0 1-.07.025ZM74.976 18.794l-2.505-3.228c1.414-.27 2.24-1.235 2.24-2.712 0-1.698-1.094-2.854-3.034-2.854h-3.491a.188.188 0 0 0-.186.188c0 .318.125.624.349.849.223.225.525.351.841.351h2.339c1.17 0 1.731.604 1.731 1.478 0 .875-.548 1.491-1.731 1.491h-3.343a.188.188 0 0 0-.186.188v4.327c0 .034.013.067.037.09a.126.126 0 0 0 .09.038h1.19a.126.126 0 0 0 .09-.037.128.128 0 0 0 .037-.09V15.64h1.376l2.176 2.865a1.24 1.24 0 0 0 .982.49h.906a.127.127 0 0 0 .115-.14.128.128 0 0 0-.023-.062ZM53.976 18.794l-2.505-3.228c1.414-.27 2.242-1.235 2.242-2.712 0-1.698-1.095-2.854-3.035-2.854h-3.492a.188.188 0 0 0-.186.188c0 .318.126.623.349.848.223.226.526.352.841.353h2.339c1.172 0 1.732.603 1.732 1.477 0 .875-.547 1.491-1.732 1.491h-3.343a.188.188 0 0 0-.186.188v4.327c0 .034.013.067.037.09a.126.126 0 0 0 .09.038h1.192a.128.128 0 0 0 .127-.128v-3.231h1.374l2.176 2.865a1.243 1.243 0 0 0 .982.49h.906a.127.127 0 0 0 .115-.14.128.128 0 0 0-.023-.062Z" fill="#FDFDFD"/><path d="M10.5 6.451a2.1 2.1 0 0 1 1.888 1.167l5.937 11.875a2.11 2.11 0 0 1-1.888 3.056H4.563a2.111 2.111 0 0 1-1.888-3.056L8.612 7.618A2.1 2.1 0 0 1 10.5 6.45ZM10.5 5a3.562 3.562 0 0 0-3.186 1.969L1.376 18.844A3.563 3.563 0 0 0 4.563 24h11.874a3.561 3.561 0 0 0 3.187-5.156L13.686 6.969A3.562 3.562 0 0 0 10.5 5Z" fill="#70D44B"/></svg>
